X: 20102
Q: "Moderate."
M: 2/4
L: 1/8
K: E
E |\
e2(dc) B2c2 | (BA)(GF) E3B |\
^A2B2 (cg2)f | (fe)(dc) B3f |\
(ed)(cB) e3d | (cB)(AG) F2B2 |\
e2f2 (g/f/a/g/ b)e | B2d2 e2z2 |]


